X: 4
T:Four Poster Bed, The
M:4/4
L:1/8
S:Kerr's
R:Novelty Reel
K:D
de|"D"f2 f2 "A7"e2 fg|"D"agfe "A7"dcde|"D"f2f2"A7"e2d2|"D"a4d2:|!
|:cd|"A"e2A2 e2A2 e3A3 f|"A"edcB "A" A2e2|z2 e2 z2 e2|z2 e2 z2 e2|
